modules/hawcons-filled/icons/icon-15-file-ai.svg

<?xml version="1.0" encoding="UTF-8" standalone="no"?>
<svg width="32px" height="32px" viewBox="0 0 32 32" version="1.1" xmlns="http://www.w3.org/2000/svg" xmlns:xlink="http://www.w3.org/1999/xlink" xmlns:sketch="http://www.bohemiancoding.com/sketch/ns">
    <!-- Generator: Sketch 3.0.3 (7891) - http://www.bohemiancoding.com/sketch -->
    <title>icon 15 file ai</title>
    <desc>Created with Sketch.</desc>
    <defs></defs>
    <g id="Page-1" stroke="none" stroke-width="1" fill="none" fill-rule="evenodd" sketch:type="MSPage">
        <g id="icon-15-file-ai" sketch:type="MSArtboardGroup" fill="#929292">
            <path d="M8.00684834,10 C6.34621185,10 5,11.3422643 5,12.9987856 L5,20.0012144 C5,21.6573979 6.33599155,23 8.00684834,23 L24.9931517,23 C26.6537881,23 28,21.6577357 28,20.0012144 L28,12.9987856 C28,11.3426021 26.6640085,10 24.9931517,10 L8.00684834,10 L8.00684834,10 Z M19,14 L19,19 L18,19 L18,20 L21,20 L21,19 L20,19 L20,14 L21,14 L21,13 L18,13 L18,14 L19,14 L19,14 Z M15,17 L12,17 L12,20 L11,20 L11,16.5 L11,15 C11,13.8877296 11.897616,13 13.0048815,13 L13.9951185,13 C15.1061002,13 16,13.8954305 16,15 L16,17 L16,20 L15,20 L15,17 L15,17 L15,17 Z M12.9989566,14 C12.4472481,14 12,14.4438648 12,15 L12,16 L15,16 L15,15 C15,14.4477153 14.5573397,14 14.0010434,14 L12.9989566,14 L12.9989566,14 Z" id="file-ai" sketch:type="MSShapeGroup"></path>
        </g>
    </g>
</svg>

<svg width="32" height="32" xmlns="http://www.w3.org/2000/svg"><path d="M8.007 10A3.003 3.003 0 0 0 5 12.999V20A2.996 2.996 0 0 0 8.007 23h16.986A3.003 3.003 0 0 0 28 20.001V13A2.996 2.996 0 0 0 24.993 10H8.007zM19 14v5h-1v1h3v-1h-1v-5h1v-1h-3v1h1zm-4 3h-3v3h-1v-5c0-1.112.898-2 2.005-2h.99A2 2 0 0 1 16 15v5h-1v-3zm-2.001-3A.997.997 0 0 0 12 15v1h3v-1c0-.552-.443-1-.999-1h-1.002z" fill="#929292" fill-rule="evenodd"/></svg>
